assets/icons/fog.svg

<?xml version="1.0" encoding="UTF-8" standalone="no"?>
<svg viewBox="0 0 24 24" height="24" width="24" version="1.1" id="svg4" sodipodi:docname="fog.svg" inkscape:version="1.1 (ce6663b3b7, 2021-05-25)"
   xmlns:inkscape="http://www.inkscape.org/namespaces/inkscape"
   xmlns:sodipodi="http://sodipodi.sourceforge.net/DTD/sodipodi-0.dtd"
   xmlns="http://www.w3.org/2000/svg"
   xmlns:svg="http://www.w3.org/2000/svg">
   <defs id="defs8" />
   <sodipodi:namedview id="namedview6" pagecolor="#ffffff" bordercolor="#666666" borderopacity="1.0" inkscape:pageshadow="2" inkscape:pageopacity="0.0" inkscape:pagecheckerboard="0" showgrid="true" inkscape:snap-page="true" inkscape:zoom="28" inkscape:cx="5.9107143" inkscape:cy="9.3214286" inkscape:window-width="1920" inkscape:window-height="1043" inkscape:window-x="1920" inkscape:window-y="0" inkscape:window-maximized="1" inkscape:current-layer="svg4">
      <inkscape:grid type="xygrid" id="grid6" />
   </sodipodi:namedview>
   <g id="layer9" label="status" style="display:inline;fill:#ffff00;fill-opacity:1" transform="translate(-790.9998,188.00025)" />
   <g id="layer2" style="display:inline;fill:#ffff00;fill-opacity:1" transform="translate(-549.9996,-178.99975)" />
   <g id="layer4" style="display:inline;fill:#ffff00;fill-opacity:1" transform="translate(-549.9996,-178.99975)" />
   <g id="g1812" style="display:inline;fill:#ffff00;fill-opacity:1" transform="translate(-549.9996,-178.99975)" />
   <g id="g6217" style="display:inline;fill:#ffff00;fill-opacity:1" transform="translate(-549.9996,-178.99975)" />
   <g id="layer3" style="display:inline;fill:#ffff00;fill-opacity:1" transform="translate(-549.9996,-178.99975)" />
   <g id="layer1" style="display:inline;fill:#ffff00;fill-opacity:1" transform="translate(-549.9996,-178.99975)" />
   <path id="circle1109" style="color:#000000;fill:#808080;fill-opacity:1;fill-rule:evenodd;stroke-linecap:round;-inkscape-stroke:none" d="M 13.5 3 C 10.792856 3 8.4682879 4.6647593 7.4921875 7.0234375 C 7.3300464 7.0074795 7.1662417 7 7 7 C 4.244501 7 2 9.2445012 2 12 C 2 13.126131 2.3802788 14.162895 3.0117188 15 L 4.3574219 15 C 3.5263199 14.267923 3 13.199 3 12 C 3 9.7849412 4.784941 8 7 8 C 7.058781 8 7.1176318 8.0033694 7.1757812 8.0058594 C 7.5173176 8.0204794 7.8463952 8.0774104 8.1601562 8.171875 C 8.2411833 7.8436276 8.3533859 7.5284166 8.4902344 7.2265625 C 9.35365 5.3220801 11.26836 4 13.5 4 C 16.543485 4 19 6.4565144 19 9.5 C 19 9.680249 18.989496 9.8574602 18.972656 10.033203 C 18.940296 10.370866 18.879427 10.700738 18.789062 11.017578 C 19.131274 11.056578 19.451133 11.164338 19.736328 11.326172 C 20.491911 11.754927 21 12.564472 21 13.5 C 21 14.886633 19.886633 16 18.5 16 C 18.40804 16 18.317845 15.995898 18.228516 15.986328 C 18.295516 15.993528 18.363131 15.99818 18.431641 16 L 16.064453 16 L 16.058594 16 L 13.5 16 L 10 16 L 4.015625 16 L 2 16 L 2 17 L 7 17 L 10 17 L 18.5 17 C 20.427072 17 22 15.427072 22 13.5 C 22 12.0885 21.156069 10.867026 19.947266 10.314453 C 19.980816 10.047431 20 9.775968 20 9.5 C 20 5.9160752 17.083925 3 13.5 3 z M 19.398438 12.226562 C 19.353777 12.322952 19.306989 12.417943 19.257812 12.511719 C 19.306983 12.417939 19.353771 12.32295 19.398438 12.226562 z M 2 18 L 2 19 L 22 19 L 22 18 L 2 18 z M 2 20 L 2 21 L 22 21 L 22 20 L 2 20 z " />
</svg>

<svg height="24" width="24" xmlns="http://www.w3.org/2000/svg"><path style="fill:gray" d="M2 20h20v1H2zm0-2h20v1H2zM13.5 3a6.51 6.51 0 0 0-6.008 4.023A5.008 5.008 0 0 0 2 12c0 1.126.38 2.163 1.012 3h1.345A3.983 3.983 0 0 1 3 12c0-2.215 1.785-4 4-4a4 4 0 0 1 1.16.172A5.492 5.492 0 0 1 13.5 4a5.492 5.492 0 0 1 5.473 6.033 5.505 5.505 0 0 1-.184.985A2.49 2.49 0 0 1 21 13.5a2.492 2.492 0 0 1-2.567 2.5H2v1h16.5c1.927 0 3.5-1.573 3.5-3.5a3.509 3.509 0 0 0-2.053-3.186c.034-.267.053-.538.053-.814C20 5.916 17.084 3 13.5 3zm5.898 9.227z"/></svg>
